svg/fr/d.svg

<?xml version="1.0" encoding="UTF-8"?>
<svg version="1.0" xmlns="http://www.w3.org/2000/svg" xmlns:xlink="http://www.w3.org/1999/xlink" width="600" height="360">
	<g id="q1">
		<rect width="300" height="180" fill="#009"/>
		<g id="fleur" fill="#ffd700" stroke="#000" stroke-width=".19216">
			<path d="M 23.69966,6.69364 C 27.0769,10.00665 29.06266,11.8337 29.40965,16.97424 C 29.73075,21.73143 26.24258,25.70858 25.49075,30.30987 C 25.34814,31.18261 25.22577,32.96404 25.35462,33.68652 C 25.45005,34.22158 25.74345,35.85619 26.06389,33.83364 C 26.1298,33.41766 26.17706,31.33059 26.37913,30.27086 C 26.74732,28.33989 27.92641,24.94453 29.97205,23.06338 C 32.01681,21.18303 35.25699,19.96336 38.14657,20.94697 C 40.76467,22.0433 41.01216,25.13944 40.26722,27.40347 C 39.33427,30.23893 35.76902,32.20146 32.57271,32.39376 C 33.20605,31.25708 34.72196,28.01266 33.07779,28.14145 C 31.17463,28.29052 28.89812,31.22925 28.30542,33.24515 C 28.08222,34.00432 28.17243,35.18304 26.97735,35.13436 C 27.76539,37.55083 29.98984,39.14983 31.93866,40.83662 C 29.90713,40.98988 27.89733,40.12221 26.12479,39.29565 C 26.19974,40.95238 25.84534,44.45225 23.69966,46.36333 C 21.708,44.39545 21.52677,41.99538 21.48946,39.29565 C 19.71692,40.12221 17.70711,40.98988 15.67559,40.83662 C 17.6244,39.14983 19.84885,37.55083 20.6369,35.13436 C 19.44182,35.18304 19.36992,34.07788 19.14671,33.31871 C 18.55402,31.30281 16.43962,28.29052 14.53646,28.14145 C 12.89229,28.01266 14.4082,31.25708 15.04154,32.39376 C 11.84523,32.20146 8.27998,30.23893 7.34703,27.40347 C 6.60209,25.13944 6.84958,22.0433 9.46768,20.94697 C 12.35726,19.96336 15.59744,21.18303 17.6422,23.06338 C 19.68783,24.94453 20.86692,28.33989 21.23512,30.27086 C 21.43719,31.33059 21.40339,33.27054 21.4693,33.68652 C 21.78974,35.70907 22.16419,34.22158 22.25962,33.68652 C 22.38848,32.96404 22.2661,31.18261 22.1235,30.30987 C 21.37167,25.70859 18.2136,21.56964 18.2046,16.97424 C 18.19662,12.82479 20.49533,9.66756 23.69966,6.69364 z"/>
			<rect x="16.01231" y="33.3147" width="15.58963" height="2.28871" rx=".8" stroke-linejoin="round"/>
		</g>
		<g id="row">
			<use xlink:href="#fleur" x="50.5"/>
			<use xlink:href="#fleur" x="101"/>
			<use xlink:href="#fleur" x="151.5"/>
			<use xlink:href="#fleur" x="202"/>
			<use xlink:href="#fleur" x="252.5"/>
		</g>
		<use xlink:href="#row" x="-25.25" y="32"/>
		<use xlink:href="#fleur" y="64"/>
		<use xlink:href="#row" y="64"/>
		<use xlink:href="#row" x="-25.25" y="96"/>
		<use xlink:href="#fleur" y="128"/>
		<use xlink:href="#row" y="128"/>
		<path d="M 10,10 H 290 V 170 H 10 z" fill="none" stroke="#fff" stroke-width="20"/>
		<path d="M 0,0 h 50 v 20 h -30 z M 100,0 h 50 v 20 h -50 z M 200,0 h 50 v 20 h -50 z M 300,0 v 45 h -20 v -25 z M 300,90 v 45 h -20 v -45 z M 300,180 h -50 v -20 h 30 z M 200,180 h -50 v -20 h 50 z M 100,180 h -50 v -20 h 50 z M 0,180 v -50 h 20 v 30 z M 0,90 v -45 h 20 v 45 z" fill="#f00"/>
	</g>
	<g id="q2">
		<rect x="300" width="300" height="180" fill="#f00"/>
		<rect x="330" y="30" width="240" height="120" fill="#009"/>
		<path d="M 570,70 V 30 H 490 z M 410,30 H 330 L 570,150 V 110 z M 330,70 V 110 L 410,150 H 490 z" fill="#ffd700"/>
	</g>
	<use xlink:href="#q2" x="-300" y="180"/>
	<use xlink:href="#q1" x="300" y="180"/>
</svg>

<svg version="1" xmlns="http://www.w3.org/2000/svg" xmlns:xlink="http://www.w3.org/1999/xlink" width="600" height="360"><g id="d"><path fill="#009" d="M0 0h300v180H0z"/><g id="a" fill="gold" stroke="#000" stroke-width=".192"><path d="M23.7 6.694c3.377 3.313 5.363 5.14 5.71 10.28.32 4.757-3.167 8.735-3.92 13.336-.142.873-.264 2.654-.135 3.377.095.535.388 2.17.709.147.066-.416.113-2.503.315-3.563.368-1.931 1.547-5.326 3.593-7.208 2.045-1.88 5.285-3.1 8.175-2.116 2.618 1.096 2.865 4.192 2.12 6.456-.933 2.836-4.498 4.798-7.694 4.99.633-1.136 2.149-4.38.505-4.252-1.903.15-4.18 3.088-4.773 5.104-.223.76-.133 1.938-1.328 1.89.788 2.416 3.013 4.015 4.962 5.702-2.032.153-4.042-.715-5.814-1.541.075 1.656-.28 5.156-2.425 7.067-1.992-1.968-2.173-4.368-2.21-7.067-1.773.826-3.783 1.694-5.814 1.54 1.948-1.686 4.173-3.285 4.96-5.702-1.194.049-1.266-1.056-1.49-1.815-.592-2.016-2.706-5.028-4.61-5.178-1.644-.128-.128 3.116.506 4.253-3.197-.193-6.762-2.155-7.695-4.99-.745-2.265-.497-5.36 2.12-6.457 2.89-.984 6.13.236 8.175 2.116 2.046 1.882 3.225 5.277 3.593 7.208.202 1.06.168 3 .234 3.416.32 2.022.695.535.79 0 .13-.723.007-2.504-.136-3.377-.751-4.601-3.91-8.74-3.918-13.336-.008-4.15 2.29-7.306 5.495-10.28z"/><rect x="16.012" y="33.315" width="15.59" height="2.289" rx=".8" stroke-linejoin="round"/></g><g id="b"><use xlink:href="#a" x="50.5"/><use xlink:href="#a" x="101"/><use xlink:href="#a" x="151.5"/><use xlink:href="#a" x="202"/><use xlink:href="#a" x="252.5"/></g><use xlink:href="#b" x="-25.25" y="32"/><use xlink:href="#a" y="64"/><use xlink:href="#b" y="64"/><use xlink:href="#b" x="-25.25" y="96"/><use xlink:href="#a" y="128"/><use xlink:href="#b" y="128"/><path d="M10 10h280v160H10z" fill="none" stroke="#fff" stroke-width="20"/><path d="M0 0h50v20H20zm100 0h50v20h-50zm100 0h50v20h-50zm100 0v45h-20V20zm0 90v45h-20V90zm0 90h-50v-20h30zm-100 0h-50v-20h50zm-100 0H50v-20h50zM0 180v-50h20v30zm0-90V45h20v45z" fill="red"/></g><g id="c"><path fill="red" d="M300 0h300v180H300z"/><path fill="#009" d="M330 30h240v120H330z"/><path d="M570 70V30h-80zM410 30h-80l240 120v-40zm-80 40v40l80 40h80z" fill="gold"/></g><use xlink:href="#c" x="-300" y="180"/><use xlink:href="#d" x="300" y="180"/></svg>
